X: 42934
T: William Durette's Clog
R: barndance
M: 4/4
K: Amajor
A>EC>E A>cB>A|G>FD>B, G2 (3FGF|E>EG>B e>dF>G|A>cA>F E2 c>B|
A>EC>E A>cB>A|G>FD>B, G2 (3FGF|E>EG>B d>BG>E|A2 c2 A2:|
e>ee>e f>ec>A|B>AB>d F2 B>A|G>EG>B d>BF>G|A>Bc>A E2 c>d|
e>ee>e f>ec>A|B>AB>d F2 B>A|G>EG>B d>BG>E|A2 c2 A2:|
AEC>E AcBA|GFDB, G2 (3FGF|EEGB edFG|AcAF E2 cB|
AEC>E AcBA|GFDB, G2 (3FGF|EEGB dBGE|A2 c2 A2:|
eeee fecA|BABd F2 BA|GEGB dBFG|ABcA E2 cd|
eeee fecA|BABd F2 BA|GEGB dBGE|A2 c2 A2:|

